X: 1
T: \AArepolskan
C: Lapp-Nils-polska efter Per Danielsson, M\"orsil, J\"amtland
B: Svenska l\aatar, J\"amtland och H\"arjedalen nr 1
S: Bruce Sagan's "scanfolk" session archive
F: https://nordicfiddlesandfeet.org/Allspel/%C3%85repolskan.pdf 2021-7-12
R: polska
Z: 2021 John Chambers <jc:trillian.mit.edu>
M: 3/4
L: 1/8
K: Em
(D | E)>F (GA) B>(G | A)>B (3G(AG) F>D | F(A/F/) (3G(BG) (3E(GE) |[1,3 (3D(CB,) A,>(A F3/) :|[2,4 (FG) G3 :|
|: (g | Tf)a g2 d>(B | c)>d (3e(ge) (3d(cB) | (A>G) (F<G) A>B | (3c(dc) (3B(AG) A>F ||
| D>g (fg) d>(B | c)>d (3e(ge) (3d(cB) | (A>G) (F<G) (3A(Bc) | (cTB) G3 :|
%%text SEL00511 Version utskriven av Stefan Lind\'en 120827
